X:34
T:The Duke of Glocesters new March
S:John Moore's Book 2
Z:Transcribed by Taz Tarry 04/2021
%%VWML: Moore1-4494-p30-0
F:http://www.vwml.org/record/Moore2/4494/p30
M:C
L:1/8
K:D
z/ A/B/c/|!trill!d>c!trill!d>c !trill!d>c!trill!d>f|e>dc>B A2 g2|f>af>d e>ge>c|d2 d>d d2 d>e|
(f2 f)>e d>cB>A|A2 ^G2 A2 d2|c>ec>A B>dB>^G|A2 A>A A2:|
z/ A/B/c/|d2 d>f a>fd>A|B2 G>G G2 e>f|(g2g)>f e2 d2|c2 A>A A2 z/A/B/c/|
!trill!d>c!trill!d>c !trill!d>c!trill!d>f|e>dc>B A2 g2|f>af>d e>ge>c|d2 d>d d2:|

